icon/tb/hand-finger-off.svg

<svg xmlns="http://www.w3.org/2000/svg" class="icon icon-tabler icon-tabler-hand-finger-off" viewBox="0 0 24 24" stroke-width="2" stroke="currentColor" fill="none" stroke-linecap="round" stroke-linejoin="round" height="1em" width="1em">
  <path stroke="none" d="M0 0h24v24H0z" fill="none"/>
  <path d="M8 13v-5"/>
  <path d="M8.06 4.077a1.5 1.5 0 0 1 2.94 .423v2.5m0 4v1"/>
  <path d="M12.063 8.065a1.5 1.5 0 0 1 1.937 1.435v.5"/>
  <path d="M14.06 10.082a1.5 1.5 0 0 1 2.94 .418v1.5"/>
  <path d="M17 11.5a1.5 1.5 0 0 1 3 0v4.5m-.88 3.129a5.996 5.996 0 0 1 -5.12 2.871h-2h.208a6 6 0 0 1 -5.012 -2.7l-.196 -.3c-.312 -.479 -1.407 -2.388 -3.286 -5.728a1.5 1.5 0 0 1 .536 -2.022a1.867 1.867 0 0 1 2.28 .28l1.47 1.47"/>
  <path d="M3 3l18 18"/>
</svg>

<svg xmlns="http://www.w3.org/2000/svg" class="icon icon-tabler icon-tabler-hand-finger-off" width="24" height="24" stroke-width="2" stroke="currentColor" fill="none" stroke-linecap="round" stroke-linejoin="round"><path d="M0 0h24v24H0z" stroke="none"/><path d="M8 13V8M8.06 4.077A1.5 1.5 0 0 1 11 4.5V7m0 4v1M12.063 8.065A1.5 1.5 0 0 1 14 9.5v.5M14.06 10.082A1.5 1.5 0 0 1 17 10.5V12"/><path d="M17 11.5a1.5 1.5 0 0 1 3 0V16m-.88 3.129A5.996 5.996 0 0 1 14 22h-2 .208a6 6 0 0 1-5.012-2.7L7 19c-.312-.479-1.407-2.388-3.286-5.728a1.5 1.5 0 0 1 .536-2.022 1.867 1.867 0 0 1 2.28.28L8 13M3 3l18 18"/></svg>
